X:1
T:F Major Daniel Belknap, 1806
T:Isaac Watts, 1707 (Hymn 103, Book 1) 86. 86. (C. M.)
T:Leominster
T:Transcribed from Daniel Belknap's The Village Compilation, 1806.
%%score [ 1 2 3 ]
L:1/8
Q:1/4=120
M:2/4
K:F
V:1 treble nm="Tr." snm="Tr."
V:2 treble-8 nm="T." snm="T."
V:3 bass nm="B." snm="B."
V:1
 A2 | c2 cd | c2 f2 | A2 G2 | A2 d2 | c2 d2 | f2 d2 | e4 | z2 c2 | f2 c2 | d2 c2 | f2 B2 | B2 c>B | %13
w: 1.~I'm|not a- *|shamed to|own my|Lord, Or|to de-|fend his|cause;|Main-|tain the|ho- nor|of his|word, The *|
 Af e2 | d2 c2 | c4 | z2 A2 | c2 c2 | c2 cf | ed cB | A2 c2 | d2 f2 | c2 f2 | e4 | z2 f2 | c2 c2 | %26
w: glo- * ry|of his|cross.|Je-|sus, my|God! I *|know * his *|name, His|name is|all my|trust;|Nor|will he|
 f2 c2 | d2 c2 | c2 f2 | e2 c2 | c2 c2 | c4 |] %32
w: put my|soul to|shame, Nor|let my|hope be|lost.|
V:2
 F2 | A2 AB | c2 cd | c2 e2 | f2 f2 | ec f2 | d2 =B2 | c4 | z2 Ac | c2 cf | f2 c2 | d2 d2 | d2 f2 | %13
w: 2.~Firm|as his *|throne his *|pro- mise|stabds, And|he * can|well se-|cure|What *|I've com- *|mit- ted|to his|hands Till|
 e2 c2 | f2 e2 | f4 | z2 F2 | A2 A2 | A2 GF | c2 cd | c2 A2 | B2 A2 | G2 F2 | c4 | z2 (3cde | %25
w: the de-|ci- sive|hour.|Then|will he|own my *|worth- less *|name Be-|fore his|Fa- ther's|face,|And, * *|
 f2 e2 | d2 A2 | d2 e2 | f2 FG | A2 B2 | A2 G2 | F4 |] %32
w: in the|new Je-|ru- sa-|lem Ap- *|point my|soul a|place.|
V:3
 F,2 | F,2 C,2 | F,2 F,2 | F,2 C,2 | F,2 F,2 | C2 F,2 | F,2 G,2 | C,4 | z2 F,2 | F,2 A,2 | %10
 B,2 A,2 | B,2 G,2 | G,2 F,2 | C2 A,2 | B,2 C2 | F,4 | z2 F,2 | F,2 F,2 | F,2 E,D, | C,2 C,2 | %20
 F,2 A,2 | G,2 F,2 | E,2 D,2 | C,4 | z2 F,2 | F,2 A,2 | B,2 A,2 | G,2 C,2 | F,2 A,B, | C2 D2 | %30
 C2 C,2 | F,4 |] %32

